build/assets/images/bg-rocket-fly.svg

<?xml version="1.0" encoding="UTF-8" standalone="no"?>
<svg version="1.1" width="1440" viewBox="50 0 1490 597" xmlns="http://www.w3.org/2000/svg" xmlns:xlink="http://www.w3.org/1999/xlink">

  <g id="trayecto">
    <path
       d="m -62.881356,410.72881 c 0,0 75.932203,-21.35593 144.745763,3.55932 68.813553,24.91526 136.440673,142.37289 223.050843,151.86441 86.61017,9.49153 148.32076,-27.81723 148.30509,-85.42373 -0.008,-31.01137 -27.28814,-52.20339 -66.44068,-52.20339 -39.15254,0 -54.57627,46.27119 -53.38983,66.44068 1.18644,20.16949 47.60375,85.47998 158.98305,78.30509 87.74292,-5.65227 98.47458,-121.01695 287.11864,-224.23729 188.64407,-103.22034 404.57628,-81.86441 462.71188,-55.76271 58.1356,26.10169 109.1525,130.50847 8.3051,162.54237 C 1149.661,487.84746 1120,330.05085 1200.678,254.11864 c 80.6779,-75.9322 134.0678,-150.50847 421.6949,-166.610165"
       id="trayecto-path"
       stroke="#DCDCDC"
       stroke-width="6" fill="none"
       stroke-dasharray="15 5"
    />
  </g>

  <g id="cohete"
     transform="translate(-20 -49) rotate(40)"
  >
    <path
        id="cohete-fill"
        d="M 69.742252,4.3164865 C 70.047419,5.7405994 70.2,7.6478651 70.2,10.038341 c 0,3.509421 -0.406883,7.374813 -1.220663,11.596291 -0.864639,4.679229 -2.047144,8.837067 -3.547549,12.473642 -1.500405,3.636574 -3.140653,6.344892 -4.920794,8.125033 -1.27153,1.27153 -3.76369,2.924493 -7.476556,4.958941 -0.81378,0.406888 -1.754697,0.890063 -2.822782,1.449536 -0.864641,3.00081 -2.644755,6.637329 -5.340397,10.909668 -3.051671,4.984396 -5.747273,8.341183 -8.086888,10.070464 -0.508612,0.356028 -1.068076,0.534039 -1.67841,0.534039 -0.254306,0 -0.508608,-0.02543 -0.762914,-0.07629 C 33.478406,69.825354 32.893512,69.26589 32.588345,68.40125 32.334039,67.841777 32.105167,67.307742 31.901723,66.79913 30.375887,62.781098 29.206098,59.932914 28.392318,58.254495 L 13.744372,43.530261 C 12.116814,42.716482 9.2940602,41.546692 5.2760267,40.020857 5.0725823,39.969994 4.7801352,39.868275 4.398676,39.715691 4.0172168,39.563107 3.7502003,39.461387 3.5976161,39.410526 2.7329764,39.105358 2.1735119,38.507748 1.9192055,37.617678 1.6649,36.727607 1.8174795,35.926556 2.3769544,35.214499 4.1570958,32.874885 7.5138828,30.153852 12.447419,27.05132 c 4.221477,-2.644781 7.857997,-4.424895 10.909667,-5.340397 0.508612,-0.966362 0.991786,-1.881849 1.449537,-2.74649 2.034448,-3.662005 3.687411,-6.128735 4.95894,-7.400264 1.424114,-1.424114 3.40767,-2.7719148 5.950729,-4.0434443 2.492198,-1.1698071 5.340381,-2.2124457 8.544635,-3.1279469 6.306787,-1.7292801 12.282886,-2.5939072 17.928477,-2.5939072 2.288754,0 4.119728,0.1780115 5.49298,0.5340397 l 1.602119,0.381457 z"
        style="fill:#ffffff;fill-opacity:1;fill-rule:evenodd;stroke:none;stroke-width:0.94999999"
    />
    <path
        id="cohete-stroke"
        fill="#E73F39"
        d="M71.5181596,2.65012195 C71.8393882,4.14918833 72,6.15683639 72,8.67312638 C72,12.3672542 71.5717017,16.4360877 70.7150924,20.8797487 C69.8049449,25.8052525 68.5602031,30.1819253 66.9808296,34.0098984 C65.4014561,37.8378714 63.6748788,40.6887317 61.8010458,42.5625647 C60.4625937,43.9010168 57.8392669,45.6409784 53.9309867,47.7825018 C53.0743773,48.2108065 52.0839376,48.7194107 50.9596379,49.3083296 C50.0494904,52.4670766 48.1756855,56.2949923 45.338167,60.7921914 C42.125882,66.0389237 39.288406,69.5723843 36.8256541,71.3926792 C36.2902733,71.7674458 35.7013632,71.9548263 35.0589062,71.9548263 C34.7912157,71.9548263 34.5235293,71.9280576 34.2558389,71.8745196 C33.3456915,71.6068291 32.7300127,71.017919 32.4087842,70.1077716 C32.1410938,69.5188527 31.900176,68.9567112 31.6860237,68.4213303 C30.0798811,64.1918216 28.8485236,61.1937339 27.9919143,59.4269771 L12.5730229,43.927779 C10.8598042,43.0711696 7.88848508,41.8398122 3.65897638,40.2336696 C3.44482404,40.1801315 3.13698467,40.073057 2.73544903,39.9124427 C2.3339134,39.7518284 2.05284267,39.6447539 1.89222841,39.5912158 C0.982080969,39.2699873 0.393170869,38.6409242 0.125480445,37.7040077 C-0.142209979,36.7670913 0.0184018662,35.9238791 0.6073208,35.1743459 C2.48115377,32.711594 6.01461437,29.8473494 11.2078086,26.5815262 C15.6514696,23.7975458 19.4793853,21.923741 22.6916704,20.9600554 C23.2270512,19.9428318 23.7356554,18.9791607 24.2174982,18.0690133 C26.3590216,14.2142712 28.0989832,11.617713 29.4374353,10.2792609 C30.9365017,8.78019452 33.0244557,7.36145655 35.70136,6.02300443 C38.3247261,4.79162848 41.3228139,3.6941142 44.6957132,2.73042868 C51.3344358,0.910133791 57.6250664,0 63.5677938,0 C65.9770076,0 67.9043498,0.187380486 69.349878,0.56214708 L71.0363193,0.963680709 L71.5181596,2.65012195 Z M18.4354139,30.1150222 C18.5960282,29.7402556 18.7834087,29.2851887 18.997561,28.7498078 C17.4984946,29.5528791 15.9191448,30.4630129 14.2594642,31.4802365 C11.9573265,32.9257648 9.92290982,34.3712714 8.15615302,35.8167997 C10.9936715,36.8875614 13.1887001,37.7976952 14.7413045,38.5472284 C16.0797567,35.4420194 17.3111141,32.6313121 18.4354139,30.1150222 Z M40.5197635,57.7405358 C41.5369871,56.0808552 42.4203523,54.5015054 43.1698855,53.002439 C42.4203523,53.3772056 42.0188227,53.5645861 41.9652846,53.5645861 C39.2348422,54.795962 36.3973663,56.0273195 33.4527716,57.2586955 C34.2023048,58.9183761 35.1124386,61.1134047 36.1832003,63.843847 C37.6287286,62.0770902 39.0742352,60.0426735 40.5197635,57.7405358 Z M66.2179157,8.59281966 C66.2179157,7.62913413 66.1911471,6.71900034 66.137609,5.86239098 C65.3880758,5.8088529 64.558248,5.78208425 63.6481005,5.78208425 C58.1336778,5.78208425 52.3516513,6.63868076 46.3018478,8.35189948 C43.2501769,9.15497075 40.5733128,10.1186418 38.2711752,11.2429416 C36.1296518,12.2601652 34.550302,13.2773736 33.5330784,14.2945972 C32.6229309,15.2582827 31.2309616,17.4533113 29.3571286,20.8797487 C27.6439099,23.9849576 25.7433364,27.8396419 23.6553511,32.4439172 C22.2098228,35.7097404 20.7643162,39.0825891 19.3187879,42.5625647 L29.4374353,52.6812121 C33.1851013,51.1286076 36.55795,49.683101 39.5560828,48.3446489 C44.1603581,46.2566636 48.0150424,44.3560901 51.1202513,42.6428714 C54.6002268,40.7690384 56.7952554,39.3770691 57.7054028,38.4669216 C59.097393,37.0749314 60.4358251,34.7460597 61.7207391,31.4802365 C63.1127293,28.0537991 64.2370122,24.1723461 65.0936216,19.8357613 C65.8431548,15.7668668 66.2179157,12.0192571 66.2179157,8.59281966 Z M9.76228754,55.2510273 C11.6896586,55.2510273 13.33593,55.9336277 14.7011512,57.2988488 C16.0663723,58.66407 16.7489727,60.2835728 16.7489727,62.1574057 C16.7489727,63.7100102 16.2805215,65.1019795 15.343605,66.3333555 C14.4066885,67.5647314 13.215484,68.4213279 11.7699557,68.9031707 L1.81192169,71.8745196 C1.70484552,71.9280576 1.57100231,71.9548263 1.41038806,71.9548263 C1.03562146,71.9548263 0.714397773,71.8209831 0.446707348,71.5532927 C0.179016924,71.2856022 0.0451737194,70.9643785 0.0451737194,70.5896119 C0.0451737194,70.4289977 0.0719423603,70.2951545 0.125480445,70.1880783 L3.0968293,60.1497376 C3.57867206,58.7042093 4.42188425,57.5263891 5.62649116,56.6162417 C6.83109807,55.7060942 8.20968308,55.2510273 9.76228754,55.2510273 Z M41.1622173,25.6981522 C41.1622173,24.252624 41.6574372,23.0346508 42.6478917,22.0441962 C43.6383463,21.0537417 44.8563195,20.5585218 46.3018478,20.5585218 C47.747376,20.5585218 48.9653492,21.0537417 49.9558038,22.0441962 C50.9462583,23.0346508 51.4414782,24.252624 51.4414782,25.6981522 C51.4414782,27.1436805 50.9462583,28.3616537 49.9558038,29.3521083 C48.9653492,30.3425628 47.747376,30.8377827 46.3018478,30.8377827 C44.8563195,30.8377827 43.6383463,30.3425628 42.6478917,29.3521083 C41.6574372,28.3616537 41.1622173,27.1436805 41.1622173,25.6981522 Z"
    />
    <animateMotion
        id="cohete-path-animation"
        dur="3.5s"
        rotate="auto"
        begin="0"
        calcMode="spline"
        keyTimes="0 ; 0.25 ; 0.5 ; 0.75 ; 1"
        keySplines="0.5 0 0.5 1 ; 0.5 0 0.5 1 ; 0.5 0 0.5 1 ; 0.5 0 0.5 1"
    >
      <mpath xlink:href="#trayecto-path"></mpath>
    </animateMotion>
  </g>


  <g id="cohete2"
     transform="translate(576 448) rotate(-2)"
     opacity="0"
  >
    <path
       id="cohete2-fill"
       d="M 69.742252,4.3164865 C 70.047419,5.7405994 70.2,7.6478651 70.2,10.038341 c 0,3.509421 -0.406883,7.374813 -1.220663,11.596291 -0.864639,4.679229 -2.047144,8.837067 -3.547549,12.473642 -1.500405,3.636574 -3.140653,6.344892 -4.920794,8.125033 -1.27153,1.27153 -3.76369,2.924493 -7.476556,4.958941 -0.81378,0.406888 -1.754697,0.890063 -2.822782,1.449536 -0.864641,3.00081 -2.644755,6.637329 -5.340397,10.909668 -3.051671,4.984396 -5.747273,8.341183 -8.086888,10.070464 -0.508612,0.356028 -1.068076,0.534039 -1.67841,0.534039 -0.254306,0 -0.508608,-0.02543 -0.762914,-0.07629 C 33.478406,69.825354 32.893512,69.26589 32.588345,68.40125 32.334039,67.841777 32.105167,67.307742 31.901723,66.79913 30.375887,62.781098 29.206098,59.932914 28.392318,58.254495 L 13.744372,43.530261 C 12.116814,42.716482 9.2940602,41.546692 5.2760267,40.020857 5.0725823,39.969994 4.7801352,39.868275 4.398676,39.715691 4.0172168,39.563107 3.7502003,39.461387 3.5976161,39.410526 2.7329764,39.105358 2.1735119,38.507748 1.9192055,37.617678 1.6649,36.727607 1.8174795,35.926556 2.3769544,35.214499 4.1570958,32.874885 7.5138828,30.153852 12.447419,27.05132 c 4.221477,-2.644781 7.857997,-4.424895 10.909667,-5.340397 0.508612,-0.966362 0.991786,-1.881849 1.449537,-2.74649 2.034448,-3.662005 3.687411,-6.128735 4.95894,-7.400264 1.424114,-1.424114 3.40767,-2.7719148 5.950729,-4.0434443 2.492198,-1.1698071 5.340381,-2.2124457 8.544635,-3.1279469 6.306787,-1.7292801 12.282886,-2.5939072 17.928477,-2.5939072 2.288754,0 4.119728,0.1780115 5.49298,0.5340397 l 1.602119,0.381457 z"
       style="fill:#ffffff;fill-opacity:1;fill-rule:evenodd;stroke:none;stroke-width:0.94999999"
    />
    <path
       id="cohete2-stroke"
       fill="#E73F39"
       d="M71.5181596,2.65012195 C71.8393882,4.14918833 72,6.15683639 72,8.67312638 C72,12.3672542 71.5717017,16.4360877 70.7150924,20.8797487 C69.8049449,25.8052525 68.5602031,30.1819253 66.9808296,34.0098984 C65.4014561,37.8378714 63.6748788,40.6887317 61.8010458,42.5625647 C60.4625937,43.9010168 57.8392669,45.6409784 53.9309867,47.7825018 C53.0743773,48.2108065 52.0839376,48.7194107 50.9596379,49.3083296 C50.0494904,52.4670766 48.1756855,56.2949923 45.338167,60.7921914 C42.125882,66.0389237 39.288406,69.5723843 36.8256541,71.3926792 C36.2902733,71.7674458 35.7013632,71.9548263 35.0589062,71.9548263 C34.7912157,71.9548263 34.5235293,71.9280576 34.2558389,71.8745196 C33.3456915,71.6068291 32.7300127,71.017919 32.4087842,70.1077716 C32.1410938,69.5188527 31.900176,68.9567112 31.6860237,68.4213303 C30.0798811,64.1918216 28.8485236,61.1937339 27.9919143,59.4269771 L12.5730229,43.927779 C10.8598042,43.0711696 7.88848508,41.8398122 3.65897638,40.2336696 C3.44482404,40.1801315 3.13698467,40.073057 2.73544903,39.9124427 C2.3339134,39.7518284 2.05284267,39.6447539 1.89222841,39.5912158 C0.982080969,39.2699873 0.393170869,38.6409242 0.125480445,37.7040077 C-0.142209979,36.7670913 0.0184018662,35.9238791 0.6073208,35.1743459 C2.48115377,32.711594 6.01461437,29.8473494 11.2078086,26.5815262 C15.6514696,23.7975458 19.4793853,21.923741 22.6916704,20.9600554 C23.2270512,19.9428318 23.7356554,18.9791607 24.2174982,18.0690133 C26.3590216,14.2142712 28.0989832,11.617713 29.4374353,10.2792609 C30.9365017,8.78019452 33.0244557,7.36145655 35.70136,6.02300443 C38.3247261,4.79162848 41.3228139,3.6941142 44.6957132,2.73042868 C51.3344358,0.910133791 57.6250664,0 63.5677938,0 C65.9770076,0 67.9043498,0.187380486 69.349878,0.56214708 L71.0363193,0.963680709 L71.5181596,2.65012195 Z M18.4354139,30.1150222 C18.5960282,29.7402556 18.7834087,29.2851887 18.997561,28.7498078 C17.4984946,29.5528791 15.9191448,30.4630129 14.2594642,31.4802365 C11.9573265,32.9257648 9.92290982,34.3712714 8.15615302,35.8167997 C10.9936715,36.8875614 13.1887001,37.7976952 14.7413045,38.5472284 C16.0797567,35.4420194 17.3111141,32.6313121 18.4354139,30.1150222 Z M40.5197635,57.7405358 C41.5369871,56.0808552 42.4203523,54.5015054 43.1698855,53.002439 C42.4203523,53.3772056 42.0188227,53.5645861 41.9652846,53.5645861 C39.2348422,54.795962 36.3973663,56.0273195 33.4527716,57.2586955 C34.2023048,58.9183761 35.1124386,61.1134047 36.1832003,63.843847 C37.6287286,62.0770902 39.0742352,60.0426735 40.5197635,57.7405358 Z M66.2179157,8.59281966 C66.2179157,7.62913413 66.1911471,6.71900034 66.137609,5.86239098 C65.3880758,5.8088529 64.558248,5.78208425 63.6481005,5.78208425 C58.1336778,5.78208425 52.3516513,6.63868076 46.3018478,8.35189948 C43.2501769,9.15497075 40.5733128,10.1186418 38.2711752,11.2429416 C36.1296518,12.2601652 34.550302,13.2773736 33.5330784,14.2945972 C32.6229309,15.2582827 31.2309616,17.4533113 29.3571286,20.8797487 C27.6439099,23.9849576 25.7433364,27.8396419 23.6553511,32.4439172 C22.2098228,35.7097404 20.7643162,39.0825891 19.3187879,42.5625647 L29.4374353,52.6812121 C33.1851013,51.1286076 36.55795,49.683101 39.5560828,48.3446489 C44.1603581,46.2566636 48.0150424,44.3560901 51.1202513,42.6428714 C54.6002268,40.7690384 56.7952554,39.3770691 57.7054028,38.4669216 C59.097393,37.0749314 60.4358251,34.7460597 61.7207391,31.4802365 C63.1127293,28.0537991 64.2370122,24.1723461 65.0936216,19.8357613 C65.8431548,15.7668668 66.2179157,12.0192571 66.2179157,8.59281966 Z M9.76228754,55.2510273 C11.6896586,55.2510273 13.33593,55.9336277 14.7011512,57.2988488 C16.0663723,58.66407 16.7489727,60.2835728 16.7489727,62.1574057 C16.7489727,63.7100102 16.2805215,65.1019795 15.343605,66.3333555 C14.4066885,67.5647314 13.215484,68.4213279 11.7699557,68.9031707 L1.81192169,71.8745196 C1.70484552,71.9280576 1.57100231,71.9548263 1.41038806,71.9548263 C1.03562146,71.9548263 0.714397773,71.8209831 0.446707348,71.5532927 C0.179016924,71.2856022 0.0451737194,70.9643785 0.0451737194,70.5896119 C0.0451737194,70.4289977 0.0719423603,70.2951545 0.125480445,70.1880783 L3.0968293,60.1497376 C3.57867206,58.7042093 4.42188425,57.5263891 5.62649116,56.6162417 C6.83109807,55.7060942 8.20968308,55.2510273 9.76228754,55.2510273 Z M41.1622173,25.6981522 C41.1622173,24.252624 41.6574372,23.0346508 42.6478917,22.0441962 C43.6383463,21.0537417 44.8563195,20.5585218 46.3018478,20.5585218 C47.747376,20.5585218 48.9653492,21.0537417 49.9558038,22.0441962 C50.9462583,23.0346508 51.4414782,24.252624 51.4414782,25.6981522 C51.4414782,27.1436805 50.9462583,28.3616537 49.9558038,29.3521083 C48.9653492,30.3425628 47.747376,30.8377827 46.3018478,30.8377827 C44.8563195,30.8377827 43.6383463,30.3425628 42.6478917,29.3521083 C41.6574372,28.3616537 41.1622173,27.1436805 41.1622173,25.6981522 Z"
    />
    <animate
       id="animation1"
       attributeName="opacity"
       fill="freeze"
       from="0" to="1" dur="1.5s"
       begin="4s"
    />
  </g>

</svg>

<svg width="1440" viewBox="50 0 1490 597" xmlns="http://www.w3.org/2000/svg" xmlns:xlink="http://www.w3.org/1999/xlink"><g id="trayecto"><path d="M-62.881 410.729s75.932-21.356 144.745 3.56c68.814 24.914 136.441 142.372 223.051 151.864 86.61 9.491 148.321-27.818 148.305-85.424-.008-31.012-27.288-52.204-66.44-52.204-39.153 0-54.577 46.272-53.39 66.441 1.186 20.17 47.604 85.48 158.983 78.305 87.743-5.652 98.474-121.017 287.119-224.237 188.644-103.22 404.576-81.865 462.711-55.763 58.136 26.102 109.153 130.509 8.306 162.543C1149.66 487.847 1120 330.05 1200.678 254.119c80.678-75.933 134.068-150.509 421.695-166.61" id="trayecto-path" stroke="#DCDCDC" stroke-width="6" fill="none" stroke-dasharray="15 5"/></g><g id="cohete" transform="rotate(40 57.313 -51.975)"><path id="cohete-fill" d="M69.742 4.316c.305 1.425.458 3.332.458 5.722 0 3.51-.407 7.375-1.22 11.597-.865 4.679-2.048 8.837-3.548 12.473-1.5 3.637-3.14 6.345-4.921 8.125-1.272 1.272-3.764 2.925-7.477 4.96a170.7 170.7 0 00-2.822 1.449c-.865 3-2.645 6.637-5.34 10.91-3.052 4.984-5.748 8.34-8.088 10.07a2.863 2.863 0 01-1.678.534c-.254 0-.509-.025-.763-.076-.865-.255-1.45-.814-1.755-1.679a37.884 37.884 0 01-.686-1.602c-1.526-4.018-2.696-6.866-3.51-8.545L13.744 43.53c-1.627-.814-4.45-1.983-8.468-3.51a7.456 7.456 0 01-.877-.304 17.175 17.175 0 00-.801-.305c-.865-.306-1.424-.903-1.679-1.793-.254-.89-.102-1.691.458-2.404 1.78-2.34 5.137-5.06 10.07-8.163 4.222-2.644 7.858-4.425 10.91-5.34.509-.966.992-1.882 1.45-2.747 2.034-3.662 3.687-6.128 4.959-7.4 1.424-1.424 3.407-2.772 5.95-4.043 2.492-1.17 5.34-2.213 8.545-3.128 6.307-1.73 12.283-2.594 17.928-2.594 2.29 0 4.12.178 5.493.534l1.603.381z" fill="#fff" fill-opacity="1" fill-rule="evenodd" stroke="none" stroke-width=".95"/><path id="cohete-stroke" fill="#E73F39" d="M71.518 2.65c.321 1.5.482 3.507.482 6.023 0 3.694-.428 7.763-1.285 12.207-.91 4.925-2.155 9.302-3.734 13.13-1.58 3.828-3.306 6.679-5.18 8.553-1.338 1.338-3.962 3.078-7.87 5.22a179.7 179.7 0 00-2.971 1.525c-.91 3.16-2.784 6.987-5.622 11.484-3.212 5.247-6.05 8.78-8.512 10.6a3.014 3.014 0 01-1.767.563c-.268 0-.535-.027-.803-.08-.91-.268-1.526-.857-1.847-1.767a39.879 39.879 0 01-.723-1.687c-1.606-4.23-2.837-7.227-3.694-8.994l-15.419-15.5c-1.713-.856-4.685-2.087-8.914-3.693a7.848 7.848 0 01-.924-.322 18.08 18.08 0 00-.843-.32C.982 39.27.393 38.64.125 37.703c-.267-.937-.107-1.78.482-2.53 1.874-2.462 5.408-5.327 10.6-8.592 4.444-2.784 8.272-4.658 11.485-5.622.535-1.017 1.044-1.98 1.525-2.891 2.142-3.855 3.882-6.451 5.22-7.79 1.5-1.499 3.587-2.918 6.264-4.256 2.624-1.231 5.622-2.329 8.995-3.293C51.334.91 57.626 0 63.568 0c2.409 0 4.336.187 5.782.562l1.686.402.482 1.686zM18.435 30.115c.161-.375.348-.83.563-1.365a94.53 94.53 0 00-4.739 2.73c-2.302 1.446-4.336 2.891-6.103 4.337 2.838 1.07 5.033 1.98 6.585 2.73a701.52 701.52 0 013.694-8.432zM40.52 57.741a63.231 63.231 0 002.65-4.739c-.75.375-1.151.563-1.205.563a336.615 336.615 0 01-8.512 3.694c.75 1.66 1.66 3.854 2.73 6.585 1.446-1.767 2.891-3.801 4.337-6.103zM66.218 8.593c0-.964-.027-1.874-.08-2.73-.75-.054-1.58-.08-2.49-.08-5.514 0-11.296.856-17.346 2.569-3.052.803-5.729 1.767-8.03 2.89-2.142 1.018-3.722 2.035-4.739 3.053-.91.963-2.302 3.158-4.176 6.585-1.713 3.105-3.614 6.96-5.702 11.564a478.808 478.808 0 00-4.336 10.119L29.437 52.68a409.347 409.347 0 0010.12-4.336c4.603-2.088 8.458-3.989 11.563-5.702 3.48-1.874 5.675-3.266 6.585-4.176 1.392-1.392 2.73-3.72 4.016-6.987 1.392-3.426 2.516-7.308 3.373-11.644.75-4.07 1.124-7.817 1.124-11.243zM9.762 55.25c1.928 0 3.574.683 4.94 2.048 1.364 1.365 2.047 2.985 2.047 4.858a6.72 6.72 0 01-1.405 4.176 7.303 7.303 0 01-3.574 2.57l-9.958 2.972a.894.894 0 01-.402.08c-.374 0-.696-.134-.963-.402a1.314 1.314 0 01-.402-.963c0-.161.027-.295.08-.402L3.097 60.15a7.168 7.168 0 012.53-3.534c1.204-.91 2.583-1.365 4.135-1.365zm31.4-29.553c0-1.445.495-2.663 1.486-3.654.99-.99 2.208-1.485 3.654-1.485 1.445 0 2.663.495 3.654 1.485.99.99 1.485 2.209 1.485 3.654 0 1.446-.495 2.664-1.485 3.654-.99.99-2.209 1.486-3.654 1.486-1.446 0-2.664-.495-3.654-1.486-.99-.99-1.486-2.208-1.486-3.654z"/><animateMotion id="cohete-path-animation" dur="3.5s" rotate="auto" begin="0" calcMode="spline" keyTimes="0 ; 0.25 ; 0.5 ; 0.75 ; 1" keySplines="0.5 0 0.5 1 ; 0.5 0 0.5 1 ; 0.5 0 0.5 1 ; 0.5 0 0.5 1"><mpath xlink:href="#trayecto-path"/></animateMotion></g><g id="cohete2" transform="rotate(-2 13120.951 -16275.509)" opacity="0"><path id="cohete2-fill" d="M69.742 4.316c.305 1.425.458 3.332.458 5.722 0 3.51-.407 7.375-1.22 11.597-.865 4.679-2.048 8.837-3.548 12.473-1.5 3.637-3.14 6.345-4.921 8.125-1.272 1.272-3.764 2.925-7.477 4.96a170.7 170.7 0 00-2.822 1.449c-.865 3-2.645 6.637-5.34 10.91-3.052 4.984-5.748 8.34-8.088 10.07a2.863 2.863 0 01-1.678.534c-.254 0-.509-.025-.763-.076-.865-.255-1.45-.814-1.755-1.679a37.884 37.884 0 01-.686-1.602c-1.526-4.018-2.696-6.866-3.51-8.545L13.744 43.53c-1.627-.814-4.45-1.983-8.468-3.51a7.456 7.456 0 01-.877-.304 17.175 17.175 0 00-.801-.305c-.865-.306-1.424-.903-1.679-1.793-.254-.89-.102-1.691.458-2.404 1.78-2.34 5.137-5.06 10.07-8.163 4.222-2.644 7.858-4.425 10.91-5.34.509-.966.992-1.882 1.45-2.747 2.034-3.662 3.687-6.128 4.959-7.4 1.424-1.424 3.407-2.772 5.95-4.043 2.492-1.17 5.34-2.213 8.545-3.128 6.307-1.73 12.283-2.594 17.928-2.594 2.29 0 4.12.178 5.493.534l1.603.381z" fill="#fff" fill-opacity="1" fill-rule="evenodd" stroke="none" stroke-width=".95"/><path id="cohete2-stroke" fill="#E73F39" d="M71.518 2.65c.321 1.5.482 3.507.482 6.023 0 3.694-.428 7.763-1.285 12.207-.91 4.925-2.155 9.302-3.734 13.13-1.58 3.828-3.306 6.679-5.18 8.553-1.338 1.338-3.962 3.078-7.87 5.22a179.7 179.7 0 00-2.971 1.525c-.91 3.16-2.784 6.987-5.622 11.484-3.212 5.247-6.05 8.78-8.512 10.6a3.014 3.014 0 01-1.767.563c-.268 0-.535-.027-.803-.08-.91-.268-1.526-.857-1.847-1.767a39.879 39.879 0 01-.723-1.687c-1.606-4.23-2.837-7.227-3.694-8.994l-15.419-15.5c-1.713-.856-4.685-2.087-8.914-3.693a7.848 7.848 0 01-.924-.322 18.08 18.08 0 00-.843-.32C.982 39.27.393 38.64.125 37.703c-.267-.937-.107-1.78.482-2.53 1.874-2.462 5.408-5.327 10.6-8.592 4.444-2.784 8.272-4.658 11.485-5.622.535-1.017 1.044-1.98 1.525-2.891 2.142-3.855 3.882-6.451 5.22-7.79 1.5-1.499 3.587-2.918 6.264-4.256 2.624-1.231 5.622-2.329 8.995-3.293C51.334.91 57.626 0 63.568 0c2.409 0 4.336.187 5.782.562l1.686.402.482 1.686zM18.435 30.115c.161-.375.348-.83.563-1.365a94.53 94.53 0 00-4.739 2.73c-2.302 1.446-4.336 2.891-6.103 4.337 2.838 1.07 5.033 1.98 6.585 2.73a701.52 701.52 0 013.694-8.432zM40.52 57.741a63.231 63.231 0 002.65-4.739c-.75.375-1.151.563-1.205.563a336.615 336.615 0 01-8.512 3.694c.75 1.66 1.66 3.854 2.73 6.585 1.446-1.767 2.891-3.801 4.337-6.103zM66.218 8.593c0-.964-.027-1.874-.08-2.73-.75-.054-1.58-.08-2.49-.08-5.514 0-11.296.856-17.346 2.569-3.052.803-5.729 1.767-8.03 2.89-2.142 1.018-3.722 2.035-4.739 3.053-.91.963-2.302 3.158-4.176 6.585-1.713 3.105-3.614 6.96-5.702 11.564a478.808 478.808 0 00-4.336 10.119L29.437 52.68a409.347 409.347 0 0010.12-4.336c4.603-2.088 8.458-3.989 11.563-5.702 3.48-1.874 5.675-3.266 6.585-4.176 1.392-1.392 2.73-3.72 4.016-6.987 1.392-3.426 2.516-7.308 3.373-11.644.75-4.07 1.124-7.817 1.124-11.243zM9.762 55.25c1.928 0 3.574.683 4.94 2.048 1.364 1.365 2.047 2.985 2.047 4.858a6.72 6.72 0 01-1.405 4.176 7.303 7.303 0 01-3.574 2.57l-9.958 2.972a.894.894 0 01-.402.08c-.374 0-.696-.134-.963-.402a1.314 1.314 0 01-.402-.963c0-.161.027-.295.08-.402L3.097 60.15a7.168 7.168 0 012.53-3.534c1.204-.91 2.583-1.365 4.135-1.365zm31.4-29.553c0-1.445.495-2.663 1.486-3.654.99-.99 2.208-1.485 3.654-1.485 1.445 0 2.663.495 3.654 1.485.99.99 1.485 2.209 1.485 3.654 0 1.446-.495 2.664-1.485 3.654-.99.99-2.209 1.486-3.654 1.486-1.446 0-2.664-.495-3.654-1.486-.99-.99-1.486-2.208-1.486-3.654z"/><animate id="animation1" attributeName="opacity" fill="freeze" from="0" to="1" dur="1.5s" begin="4s"/></g></svg>
